dist/img/pages/service/advantages-card-icon-3.svg

<svg width="128" height="50" viewBox="0 0 128 50" fill="none" xmlns="http://www.w3.org/2000/svg">
<g clip-path="url(#clip0_7106_11216)">
<g opacity="0.2">
<mask id="path-1-inside-1_7106_11216" fill="white">
<path fill-rule="evenodd" clip-rule="evenodd" d="M78 14.3553V35.6445L92.3555 50H113.645L128 35.6447V14.3553L113.645 0H92.3553L78 14.3553Z"/>
</mask>
<path d="M78 35.6445H77V36.0588L77.2929 36.3516L78 35.6445ZM78 14.3553L77.2929 13.6482L77 13.9411V14.3553H78ZM92.3555 50L91.6484 50.7071L91.9412 51H92.3555V50ZM113.645 50V51H114.059L114.352 50.7071L113.645 50ZM128 35.6447L128.707 36.3518L129 36.0589V35.6447H128ZM128 14.3553H129V13.9411L128.707 13.6482L128 14.3553ZM113.645 0L114.352 -0.707107L114.059 -1H113.645V0ZM92.3553 0V-1H91.9411L91.6482 -0.707107L92.3553 0ZM79 35.6445V14.3553H77V35.6445H79ZM77.2929 36.3516L91.6484 50.7071L93.0626 49.2929L78.7071 34.9374L77.2929 36.3516ZM113.645 49H92.3555V51H113.645V49ZM127.293 34.9376L112.938 49.2929L114.352 50.7071L128.707 36.3518L127.293 34.9376ZM127 14.3553V35.6447H129V14.3553H127ZM128.707 13.6482L114.352 -0.707107L112.938 0.707107L127.293 15.0624L128.707 13.6482ZM92.3553 1H113.645V-1H92.3553V1ZM91.6482 -0.707107L77.2929 13.6482L78.7071 15.0624L93.0624 0.707107L91.6482 -0.707107Z" fill="#2A2A2A" mask="url(#path-1-inside-1_7106_11216)"/>
</g>
<g opacity="0.4">
<mask id="path-3-inside-2_7106_11216" fill="white">
<path fill-rule="evenodd" clip-rule="evenodd" d="M39.2656 14.3553V35.6445L53.6211 50H74.9103L89.2656 35.6447V14.3553L74.9103 0H53.621L39.2656 14.3553Z"/>
</mask>
<path d="M39.2656 35.6445H38.2656V36.0588L38.5585 36.3516L39.2656 35.6445ZM39.2656 14.3553L38.5585 13.6482L38.2656 13.9411V14.3553H39.2656ZM53.6211 50L52.914 50.7071L53.2069 51H53.6211V50ZM74.9103 50V51H75.3245L75.6174 50.7071L74.9103 50ZM89.2656 35.6447L89.9727 36.3518L90.2656 36.0589V35.6447H89.2656ZM89.2656 14.3553H90.2656V13.9411L89.9727 13.6482L89.2656 14.3553ZM74.9103 0L75.6174 -0.707107L75.3245 -1H74.9103V0ZM53.621 0V-1H53.2068L52.9139 -0.707107L53.621 0ZM40.2656 35.6445V14.3553H38.2656V35.6445H40.2656ZM38.5585 36.3516L52.914 50.7071L54.3282 49.2929L39.9727 34.9374L38.5585 36.3516ZM74.9103 49H53.6211V51H74.9103V49ZM88.5585 34.9376L74.2032 49.2929L75.6174 50.7071L89.9727 36.3518L88.5585 34.9376ZM88.2656 14.3553V35.6447H90.2656V14.3553H88.2656ZM89.9727 13.6482L75.6174 -0.707107L74.2032 0.707107L88.5585 15.0624L89.9727 13.6482ZM53.621 1H74.9103V-1H53.621V1ZM52.9139 -0.707107L38.5585 13.6482L39.9727 15.0624L54.3281 0.707107L52.9139 -0.707107Z" fill="#2A2A2A" mask="url(#path-3-inside-2_7106_11216)"/>
</g>
<path fill-rule="evenodd" clip-rule="evenodd" d="M0 14.3553V35.6445L14.3555 50H35.6447L50 35.6447V14.3553L35.6447 0H14.3553L0 14.3553Z" fill="#0047FF"/>
<path d="M31 22L23.3452 30L19 25.3798" stroke="white" stroke-width="1.77985" stroke-linecap="square"/>
</g>
<defs>
<clipPath id="clip0_7106_11216">
<rect width="128" height="50" fill="white"/>
</clipPath>
</defs>
</svg>

<svg width="128" height="50" viewBox="0 0 128 50" fill="none" xmlns="http://www.w3.org/2000/svg"><g clip-path="url(#clip0_7106_11216)"><g opacity=".2"><mask id="path-1-inside-1_7106_11216" fill="#fff"><path fill-rule="evenodd" clip-rule="evenodd" d="M78 14.355v21.29L92.356 50h21.289L128 35.645v-21.29L113.645 0h-21.29L78 14.355z"/></mask><path d="M78 35.645h-1v.414l.293.293.707-.707zm0-21.29l-.707-.707-.293.293v.414h1zM92.356 50l-.708.707.293.293h.415v-1zm21.289 0v1h.414l.293-.293-.707-.707zM128 35.645l.707.707.293-.293v-.414h-1zm0-21.29h1v-.414l-.293-.293-.707.707zM113.645 0l.707-.707-.293-.293h-.414v1zm-21.29 0v-1h-.414l-.293.293.707.707zM79 35.645v-21.29h-2v21.29h2zm-1.707.707l14.355 14.355 1.415-1.414-14.356-14.356-1.414 1.415zM113.645 49h-21.29v2h21.29v-2zm13.648-14.062l-14.355 14.355 1.414 1.414 14.355-14.355-1.414-1.414zM127 14.355v21.29h2v-21.29h-2zm1.707-.707L114.352-.707 112.938.707l14.355 14.355 1.414-1.414zM92.355 1h21.29v-2h-21.29v2zm-.707-1.707L77.293 13.648l1.414 1.414L93.062.707 91.648-.707z" fill="#2A2A2A" mask="url(#path-1-inside-1_7106_11216)"/></g><g opacity=".4"><mask id="path-3-inside-2_7106_11216" fill="#fff"><path fill-rule="evenodd" clip-rule="evenodd" d="M39.266 14.355v21.29L53.62 50h21.29l14.355-14.355v-21.29L74.91 0H53.621L39.266 14.355z"/></mask><path d="M39.266 35.645h-1v.414l.293.293.707-.707zm0-21.29l-.707-.707-.293.293v.414h1zM53.62 50l-.707.707.293.293h.414v-1zm21.29 0v1h.413l.293-.293L74.91 50zm14.355-14.355l.707.707.293-.293v-.414h-1zm0-21.29h1v-.414l-.293-.293-.707.707zM74.91 0l.707-.707L75.324-1h-.414v1zM53.621 0v-1h-.414l-.293.293.707.707zM40.266 35.645v-21.29h-2v21.29h2zm-1.707.707l14.355 14.355 1.414-1.414-14.355-14.356-1.414 1.415zM74.91 49H53.621v2h21.29v-2zm13.648-14.062L74.203 49.293l1.414 1.414 14.356-14.355-1.415-1.414zm-.292-20.583v21.29h2v-21.29h-2zm1.707-.707L75.617-.707 74.203.707l14.355 14.355 1.415-1.414zM53.62 1h21.29v-2H53.62v2zm-.707-1.707L38.559 13.648l1.414 1.414L54.328.707 52.914-.707z" fill="#2A2A2A" mask="url(#path-3-inside-2_7106_11216)"/></g><path fill-rule="evenodd" clip-rule="evenodd" d="M0 14.355v21.29L14.355 50h21.29L50 35.645v-21.29L35.645 0h-21.29L0 14.355z" fill="#0047FF"/><path d="M31 22l-7.655 8L19 25.38" stroke="#fff" stroke-width="1.78" stroke-linecap="square"/></g><defs><clipPath id="clip0_7106_11216"><path fill="#fff" d="M0 0h128v50H0z"/></clipPath></defs></svg>
